gtk/icons/gesture-pinch-symbolic.svg

<svg
        xmlns='http://www.w3.org/2000/svg'
        xmlns:svg='http://www.w3.org/2000/svg'
        width='64'
        height='64'>
  <path
          clip-path='none'
          fill='url(#gpa:foreground) rgb(0,0,0)'
          fill-opacity='1'
          fill-rule='nonzero'
          d='M 40 16 C 37.784 16, 36 17.867, 36 20.186 L 36 36 L 35 36 L 35 29.186 C 35 29.023, 34.972 28.869, 34.955 28.711 C 34.9494 27.0637, 33.9344 25.5883, 32.398 24.994 L 27.961 23.254 C 27.578 18.648, 23.7 15, 19 15 C 14.047 15, 10 19.047, 10 24 C 10 25.419, 10.341 26.759, 10.932 27.955 C 6.01 27.993, 2 32.021, 2 36.951 C 2 41.904, 6.047 45.951, 11 45.951 C 11.657 45.951, 12.296 45.875, 12.914 45.741 L 22 57 L 58 57 C 60.216 57, 62 55.133, 62 52.814 L 62 29.186 C 62 26.866, 60.216 25, 58 25 C 55.784 25, 54 26.867, 54 29.186 L 54 36 L 53 36 L 53 23.186 C 53 20.866, 51.216 19, 49 19 C 46.784 19, 45 20.867, 45 23.186 L 45 36 L 44 36 L 44 20.186 C 44 17.866, 42.216 16, 40 16 Z M 19 18 C 21.5253 17.9919, 23.7825 19.5736, 24.637 21.95 L 20.414 20.291 C 19.9185 20.0885, 19.3873 19.9875, 18.852 19.994 C 14.429 20.049, 13.352 26.18, 17.492 27.738 L 21.666 29.377 C 20.8372 29.7872, 19.9248 30.0004, 19 30 C 15.669 30, 13 27.331, 13 24 C 13 20.669, 15.669 18, 19 18 Z M 24.996 30.684 L 27 31.47 L 27 42.535 L 22.605 44.483 L 19.25 40.533 C 20.308 38.1176, 20.2414 35.3575, 19.068 32.996 C 21.2605 32.9768, 23.3699 32.1538, 24.996 30.683 Z M 11 30.95 C 12.7425 30.9436, 14.401 31.6979, 15.5413 33.0154 C 16.6817 34.3329, 17.1903 36.0825, 16.934 37.806 L 14.105 34.478 C 13.3495 33.5194, 12.1976 32.9581, 10.977 32.954 C 7.576 32.943, 5.713 36.911, 7.895 39.52 L 10.648 42.933 C 7.47221 42.7615, 4.98845 40.1304, 5 36.95 C 5 33.619, 7.669 30.95, 11 30.95 Z'
          class='foreground foreground-fill'>
  </path>
</svg>

<svg xmlns="http://www.w3.org/2000/svg" width="64" height="64">
  <path d="M40 16c-2.216 0-4 1.867-4 4.186V36h-1v-6.814c0-.163-.028-.317-.045-.475a4 4 0 0 0-2.557-3.717l-4.437-1.74C27.578 18.648 23.7 15 19 15c-4.953 0-9 4.047-9 9 0 1.419.341 2.759.932 3.955C6.01 27.993 2 32.021 2 36.951c0 4.953 4.047 9 9 9 .657 0 1.296-.076 1.914-.21L22 57h36c2.216 0 4-1.867 4-4.186V29.186C62 26.866 60.216 25 58 25s-4 1.867-4 4.186V36h-1V23.186C53 20.866 51.216 19 49 19s-4 1.867-4 4.186V36h-1V20.186C44 17.866 42.216 16 40 16Zm-21 2a5.97 5.97 0 0 1 5.637 3.95l-4.223-1.659a4 4 0 0 0-1.562-.297c-4.423.055-5.5 6.186-1.36 7.744l4.174 1.639A6.004 6.004 0 0 1 19 30c-3.331 0-6-2.669-6-6s2.669-6 6-6zm5.996 12.684L27 31.47v11.065l-4.395 1.948-3.355-3.95a8.907 8.907 0 0 0-.182-7.537 8.954 8.954 0 0 0 5.928-2.313zM11 30.95a5.977 5.977 0 0 1 5.934 6.856l-2.829-3.328a4 4 0 0 0-3.128-1.524c-3.401-.011-5.264 3.957-3.082 6.566l2.753 3.413A5.97 5.97 0 0 1 5 36.95c0-3.331 2.669-6 6-6z"/>
</svg>
